src/next/cmd/sc_fontworkshapetype.fontwork-circle-curve.svg

<svg height="16" viewBox="0 0 16 16" width="16" xmlns="http://www.w3.org/2000/svg" xmlns:xlink="http://www.w3.org/1999/xlink"><linearGradient id="a" gradientUnits="userSpaceOnUse" x1="0" x2="128" y1="64" y2="64"><stop offset="0" stop-color="#7c9fcf"/><stop offset=".5" stop-color="#7c9ece"/><stop offset="1" stop-color="#7b9dcf"/></linearGradient><linearGradient id="b" gradientUnits="userSpaceOnUse" x1="64" x2="64" y1="128" y2="0"><stop offset="0" stop-color="#fff"/><stop offset=".53340602" stop-color="#fff"/><stop offset=".9375" stop-color="#f1f1f1"/><stop offset=".96875" stop-color="#eaeaea"/><stop offset="1" stop-color="#dfdfdf"/></linearGradient><g transform="scale(.125)"><path d="m64 0a64 64 0 0 0 -64 64 64 64 0 0 0 64 64 64 64 0 0 0 64-64 64 64 0 0 0 -64-64zm0 24a40 40 0 0 1 40 40 40 40 0 0 1 -40 40 40 40 0 0 1 -40-40 40 40 0 0 1 40-40z" fill="url(#a)"/><path d="m64 8a56 56 0 0 0 -56 56 56 56 0 0 0 56 56 56 56 0 0 0 56-56 56 56 0 0 0 -56-56zm0 8a48 48 0 0 1 48 48 48 48 0 0 1 -48 48 48 48 0 0 1 -48-48 48 48 0 0 1 48-48z" fill="url(#b)"/></g></svg>

<?xml version="1.0" encoding="UTF-8" standalone="no"?>
<svg
   xmlns:dc="http://purl.org/dc/elements/1.1/"
   xmlns:cc="http://creativecommons.org/ns#"
   xmlns:rdf="http://www.w3.org/1999/02/22-rdf-syntax-ns#"
   xmlns:svg="http://www.w3.org/2000/svg"
   xmlns="http://www.w3.org/2000/svg"
   xmlns:sodipodi="http://sodipodi.sourceforge.net/DTD/sodipodi-0.dtd"
   xmlns:inkscape="http://www.inkscape.org/namespaces/inkscape"
   height="16"
   viewBox="0 0 16 16"
   width="16"
   version="1.1"
   id="svg24"
   sodipodi:docname="sc_fontworkshapetype.fontwork-circle-curve.svg"
   inkscape:version="0.92.3 (2405546, 2018-03-11)"
   inkscape:export-filename="/home/rizmut/Dokumen/Rizmut/Github/libreoffice-style-karasa-jaga/src/next/cmd/sc_fontworkshapetype.fontwork-circle-curve.png"
   inkscape:export-xdpi="96"
   inkscape:export-ydpi="96">
  <metadata
     id="metadata30">
    <rdf:RDF>
      <cc:Work
         rdf:about="">
        <dc:format>image/svg+xml</dc:format>
        <dc:type
           rdf:resource="http://purl.org/dc/dcmitype/StillImage" />
        <dc:title></dc:title>
      </cc:Work>
    </rdf:RDF>
  </metadata>
  <defs
     id="defs28" />
  <sodipodi:namedview
     pagecolor="#ffffff"
     bordercolor="#666666"
     borderopacity="1"
     objecttolerance="10"
     gridtolerance="10"
     guidetolerance="10"
     inkscape:pageopacity="0"
     inkscape:pageshadow="2"
     inkscape:window-width="1366"
     inkscape:window-height="714"
     id="namedview26"
     showgrid="false"
     inkscape:zoom="10.429825"
     inkscape:cx="2.8058478"
     inkscape:cy="4.1651283"
     inkscape:window-x="0"
     inkscape:window-y="28"
     inkscape:window-maximized="1"
     inkscape:current-layer="svg24" />
  <linearGradient
     id="a"
     gradientUnits="userSpaceOnUse"
     x1="0"
     x2="128"
     y1="64"
     y2="64">
    <stop
       offset="0"
       stop-color="#7c9fcf"
       id="stop2" />
    <stop
       offset=".5"
       stop-color="#7c9ece"
       id="stop4" />
    <stop
       offset="1"
       stop-color="#7b9dcf"
       id="stop6" />
  </linearGradient>
  <linearGradient
     id="b"
     gradientUnits="userSpaceOnUse"
     x1="64"
     x2="64"
     y1="128"
     y2="0">
    <stop
       offset="0"
       stop-color="#fff"
       id="stop9" />
    <stop
       offset=".53340602"
       stop-color="#fff"
       id="stop11" />
    <stop
       offset=".9375"
       stop-color="#f1f1f1"
       id="stop13" />
    <stop
       offset=".96875"
       stop-color="#eaeaea"
       id="stop15" />
    <stop
       offset="1"
       stop-color="#dfdfdf"
       id="stop17" />
  </linearGradient>
  <g
     id="g842"
     transform="scale(0.125)">
    <path
       id="path20"
       d="M 64,0 A 64,64 0 0 0 0,64 64,64 0 0 0 64,128 64,64 0 0 0 128,64 64,64 0 0 0 64,0 Z m 0,24 A 40,40 0 0 1 104,64 40,40 0 0 1 64,104 40,40 0 0 1 24,64 40,40 0 0 1 64,24 Z"
       style="fill:url(#a)"
       inkscape:connector-curvature="0" />
    <path
       id="path22"
       d="M 64,8 A 56,56 0 0 0 8,64 56,56 0 0 0 64,120 56,56 0 0 0 120,64 56,56 0 0 0 64,8 Z m 0,8 A 48,48 0 0 1 112,64 48,48 0 0 1 64,112 48,48 0 0 1 16,64 48,48 0 0 1 64,16 Z"
       style="fill:url(#b)"
       inkscape:connector-curvature="0" />
  </g>
</svg>
